web/themes/custom/uswds_wioa/images/svg/icon-external-link.svg

<?xml version="1.0" encoding="UTF-8"?>
<svg width="16px" height="16px" viewBox="0 0 16 16" version="1.1" xmlns="http://www.w3.org/2000/svg" xmlns:xlink="http://www.w3.org/1999/xlink">
    <!-- Generator: Sketch 52.3 (67297) - http://www.bohemiancoding.com/sketch -->
    <title></title>
    <desc>Created with Sketch.</desc>
    <g id="Symbols" stroke="none" stroke-width="1" fill="none" fill-rule="evenodd">
        <g id="UI-element-/-Icons-/-External-link" fill="#0071BC">
            <path d="M14,8.95454545 L14,13.1363636 C14,14.7173295 12.7173295,16 11.1363636,16 L2.86363636,16 C1.28267045,16 0,14.7173295 0,13.1363636 L0,2.86363636 C0,1.28267045 1.28267045,2.27373675e-13 2.86363636,2.27373675e-13 L9.86363636,2.27373675e-13 C10.0426136,2.27373675e-13 10.1818182,0.139204545 10.1818182,0.318181818 L10.1818182,0.954545455 C10.1818182,1.13352273 10.0426136,1.27272727 9.86363636,1.27272727 L2.86363636,1.27272727 C1.98863636,1.27272727 1.27272727,1.98863636 1.27272727,2.86363636 L1.27272727,13.1363636 C1.27272727,14.0113636 1.98863636,14.7272727 2.86363636,14.7272727 L11.1363636,14.7272727 C12.0113636,14.7272727 12.7272727,14.0113636 12.7272727,13.1363636 L12.7272727,8.95454545 C12.7272727,8.77556818 12.8664773,8.63636364 13.0454545,8.63636364 L13.6818182,8.63636364 C13.8607955,8.63636364 14,8.77556818 14,8.95454545 Z M16,2.57813911 L16,7.20325203 C16,7.51942186 15.7380307,7.78139115 15.4218609,7.78139115 C15.2682927,7.78139115 15.1237579,7.71815718 15.0153568,7.6097561 L13.4254743,6.01987353 L7.53568202,11.9096658 C7.48148148,11.9638663 7.40018067,12 7.32791328,12 C7.25564589,12 7.17434508,11.9638663 7.12014453,11.9096658 L6.09033424,10.8798555 C6.03613369,10.8256549 6,10.7443541 6,10.6720867 C6,10.5998193 6.03613369,10.5185185 6.09033424,10.464318 L11.9801265,4.57452575 L10.3902439,2.98464318 C10.2818428,2.8762421 10.2186089,2.73170732 10.2186089,2.57813911 C10.2186089,2.26196929 10.4805781,2 10.796748,2 L15.4218609,2 C15.7380307,2 16,2.26196929 16,2.57813911 Z" id=""></path>
        </g>
    </g>
</svg>

<svg width="16" height="16" xmlns="http://www.w3.org/2000/svg"><path d="M14 8.955v4.181A2.864 2.864 0 0 1 11.136 16H2.864A2.864 2.864 0 0 1 0 13.136V2.864A2.864 2.864 0 0 1 2.864 0h7c.179 0 .318.14.318.318v.637c0 .179-.14.318-.318.318h-7c-.875 0-1.591.716-1.591 1.59v10.273c0 .875.716 1.591 1.59 1.591h8.273c.875 0 1.591-.716 1.591-1.59V8.954c0-.18.14-.319.318-.319h.637c.179 0 .318.14.318.319zm2-6.377v4.625a.582.582 0 0 1-.578.578.575.575 0 0 1-.407-.171l-1.59-1.59-5.89 5.89a.311.311 0 0 1-.207.09.311.311 0 0 1-.208-.09l-1.03-1.03a.311.311 0 0 1-.09-.208c0-.072.036-.153.09-.208l5.89-5.89-1.59-1.59a.575.575 0 0 1-.171-.406c0-.316.262-.578.578-.578h4.625c.316 0 .578.262.578.578z" fill="#0071BC" fill-rule="evenodd"/></svg>
